assets/icons/qvision/local_bar.svg

<svg xmlns="http://www.w3.org/2000/svg" height="24" viewBox="0 0 24 24" width="24"><path d="M0 0h24v24H0z" fill="none"/><path d="M21 5V3H3v2l8 9v5H6v2h12v-2h-5v-5l8-9zM7.43 7L5.66 5h12.69l-1.78 2H7.43z"/></svg>

<svg width="24" height="24" viewBox="0 0 24 24" fill="none" xmlns="http://www.w3.org/2000/svg">
<g clip-path="url(#clip0_147_5377)">
<path d="M21 5V3H3V5L11 14V19H6V21H18V19H13V14L21 5ZM7.43 7L5.66 5H18.35L16.57 7H7.43Z" fill="#323232"/>
</g>
<defs>
<clipPath id="clip0_147_5377">
<rect width="24" height="24" fill="white"/>
</clipPath>
</defs>
</svg>
